icons/svg/thumbs-down.svg

<svg width="24" height="24" viewBox="0 0 24 24" fill="none" xmlns="http://www.w3.org/2000/svg">
<rect x="21.25" y="16.7991" width="4.2" height="13.2957" rx="1.5" transform="rotate(180 21.25 16.7991)" stroke="currentColor" stroke-width="1.5" stroke-linecap="round" stroke-linejoin="round"/>
<path d="M17.05 11.4474H17.8C17.8 11.0332 17.4643 10.6974 17.05 10.6974V11.4474ZM17.05 14.4745L17.6766 14.8867C17.7571 14.7643 17.8 14.621 17.8 14.4745H17.05ZM17.05 11.4474H16.3C16.3 11.8616 16.6358 12.1974 17.05 12.1974V11.4474ZM4.76462 5.34631L5.48825 5.54343L4.76462 5.34631ZM2.80665 12.534L3.53028 12.7312V12.7312L2.80665 12.534ZM9.31374 15.6911H10.0637C10.0637 15.2769 9.72796 14.9411 9.31374 14.9411V15.6911ZM13.0203 20.5993L12.3938 20.187L12.3938 20.1871L13.0203 20.5993ZM16.3 11.4474V14.4745H17.8V11.4474H16.3ZM17.05 12.1974H17.05V10.6974H17.05V12.1974ZM16.3 6.50338V11.4474H17.8V6.50338H16.3ZM14.05 4.25338C15.2927 4.25338 16.3 5.26074 16.3 6.50338H17.8C17.8 4.43231 16.1211 2.75338 14.05 2.75338V4.25338ZM7.17673 4.25338H14.05V2.75338H7.17673V4.25338ZM5.48825 5.54343C5.69572 4.78182 6.38737 4.25338 7.17673 4.25338V2.75338C5.71077 2.75338 4.42628 3.73478 4.04099 5.14919L5.48825 5.54343ZM3.53028 12.7312L5.48825 5.54343L4.04099 5.14919L2.08301 12.3369L3.53028 12.7312ZM5.21875 14.9411C4.06506 14.9411 3.22706 13.8443 3.53028 12.7312L2.08301 12.3369C1.51989 14.4042 3.07619 16.4411 5.21875 16.4411V14.9411ZM9.31374 14.9411H5.21875V16.4411H9.31374V14.9411ZM10.0637 16.9126V15.6911H8.56374V16.9126H10.0637ZM10.0637 16.9131V16.9126H8.56374V16.9131H10.0637ZM10.0637 19.5V16.9131H8.56374V19.5H10.0637ZM11.3137 20.75C10.6234 20.75 10.0637 20.1904 10.0637 19.5H8.56374C8.56374 21.0188 9.79496 22.25 11.3137 22.25V20.75ZM11.3495 20.75H11.3137V22.25H11.3495V20.75ZM12.3938 20.1871C12.1626 20.5384 11.7702 20.75 11.3495 20.75V22.25C12.2749 22.25 13.1382 21.7846 13.6469 21.0115L12.3938 20.1871ZM16.4235 14.0622L12.3938 20.187L13.6469 21.0115L17.6766 14.8867L16.4235 14.0622Z" fill="currentColor"/>
</svg>

<svg xmlns="http://www.w3.org/2000/svg" width="24" height="24" fill="none" viewBox="0 0 24 24"><rect width="4.2" height="13.296" x="21.25" y="16.799" stroke="currentColor" stroke-linecap="round" stroke-linejoin="round" stroke-width="1.5" rx="1.5" transform="rotate(180 21.25 16.8)"/><path fill="currentColor" d="M17.05 11.447h.75a.75.75 0 0 0-.75-.75zm0 3.028.627.412a.75.75 0 0 0 .123-.412zm0-3.028h-.75c0 .415.336.75.75.75zm-12.285-6.1.723.196zm-1.958 7.187.723.197zm6.507 3.157h.75a.75.75 0 0 0-.75-.75zM13.02 20.6l-.626-.412zm3.28-9.152v3.028h1.5v-3.028zm.75.75v-1.5zm-.75-5.694v4.944h1.5V6.503zm-2.25-2.25a2.25 2.25 0 0 1 2.25 2.25h1.5a3.75 3.75 0 0 0-3.75-3.75zm-6.873 0h6.873v-1.5H7.177zm-1.689 1.29a1.75 1.75 0 0 1 1.689-1.29v-1.5A3.25 3.25 0 0 0 4.04 5.15zM3.53 12.731l1.958-7.188-1.447-.394-1.958 7.188zm1.689 2.21a1.75 1.75 0 0 1-1.689-2.21l-1.447-.394a3.25 3.25 0 0 0 3.136 4.104zm4.095 0H5.219v1.5h4.095zm.75 1.972V15.69h-1.5v1.222zm0 0h-1.5zm0 2.587v-2.587h-1.5V19.5zm1.25 1.25c-.69 0-1.25-.56-1.25-1.25h-1.5a2.75 2.75 0 0 0 2.75 2.75zm.036 0h-.036v1.5h.036zm1.044-.563a1.25 1.25 0 0 1-1.044.563v1.5a2.75 2.75 0 0 0 2.297-1.238zm4.03-6.125-4.03 6.125 1.253.825 4.03-6.125z"/></svg>
